resources/svg/calendar-x-fill.svg

<svg xmlns="http://www.w3.org/2000/svg" viewBox="0 0 256 256" fill="currentColor"><path d="M207.99414,31.9971h-24v-8a8,8,0,1,0-16,0v8h-80v-8a8,8,0,0,0-16,0v8h-24a16.01583,16.01583,0,0,0-16,16v160a16.01582,16.01582,0,0,0,16,16h160a16.01581,16.01581,0,0,0,16-16v-160A16.01582,16.01582,0,0,0,207.99414,31.9971ZM157.65039,170.34085a7.99915,7.99915,0,1,1-11.3125,11.3125L127.99414,163.3096l-18.34375,18.34375a7.99915,7.99915,0,0,1-11.3125-11.3125l18.34375-18.34375L98.33789,133.65335a7.99915,7.99915,0,1,1,11.3125-11.3125l18.34375,18.34375,18.34375-18.34375a7.99915,7.99915,0,1,1,11.3125,11.3125L139.30664,151.9971ZM207.99414,79.9971h-160v-32h24v8a8,8,0,0,0,16,0v-8h80v8a8,8,0,1,0,16,0v-8h24Z"/></svg>

<svg xmlns="http://www.w3.org/2000/svg" viewBox="0 0 256 256" fill="currentColor"><path d="M208,32H184V24a8,8,0,0,0-16,0v8H88V24a8,8,0,0,0-16,0v8H48A16,16,0,0,0,32,48V208a16,16,0,0,0,16,16H208a16,16,0,0,0,16-16V48A16,16,0,0,0,208,32ZM157.7,170.3a8.1,8.1,0,0,1,0,11.4A8.5,8.5,0,0,1,152,184a8.3,8.3,0,0,1-5.7-2.3L128,163.3l-18.3,18.4A8.5,8.5,0,0,1,104,184a8.3,8.3,0,0,1-5.7-2.3,8.1,8.1,0,0,1,0-11.4L116.7,152,98.3,133.7a8.1,8.1,0,0,1,11.4-11.4L128,140.7l18.3-18.4a8.1,8.1,0,0,1,11.4,11.4L139.3,152ZM208,80H48V48H72v8a8,8,0,0,0,16,0V48h80v8a8,8,0,0,0,16,0V48h24Z"/></svg>
